X: 1
T: Farewell To Derry
M: 6/8
L: 1/8
R: jig
K: Cmaj
|: c2d e2c | e2g g2a | g2a g2e | d3 e3 |
c2B c2d | e2d c2A | G2E G2B | c3 d3 :|
|: e2a a2g | a2b a2e | g2a g2e | d3 e3 |
c2d e2c | e2g g2a | g2a g2e | d3 c3 :|
